svg/unicycle.svg

<svg xmlns="http://www.w3.org/2000/svg" viewBox="0 0 24 24"><path d="M13 9.09V5h1c.55 0 1-.45 1-1s-.45-1-1-1h-4c-.55 0-1 .45-1 1s.45 1 1 1h1v4.09c-2.84.48-5 2.94-5 5.91 0 3.31 2.69 6 6 6s6-2.69 6-6c0-2.97-2.16-5.43-5-5.91M12 19c-2.21 0-4-1.79-4-4 0-1.86 1.28-3.41 3-3.86V16h2v-4.86c1.72.45 3 2 3 3.86 0 2.21-1.79 4-4 4"/></svg>

<?xml version="1.0" encoding="UTF-8"?><!DOCTYPE svg PUBLIC "-//W3C//DTD SVG 1.1//EN" "http://www.w3.org/Graphics/SVG/1.1/DTD/svg11.dtd"><svg xmlns="http://www.w3.org/2000/svg" xmlns:xlink="http://www.w3.org/1999/xlink" version="1.1" id="mdi-unicycle" width="24" height="24" viewBox="0 0 24 24"><path d="M13 9.09V5H14C14.55 5 15 4.55 15 4S14.55 3 14 3H10C9.45 3 9 3.45 9 4S9.45 5 10 5H11V9.09C8.16 9.57 6 12.03 6 15C6 18.31 8.69 21 12 21S18 18.31 18 15C18 12.03 15.84 9.57 13 9.09M12 19C9.79 19 8 17.21 8 15C8 13.14 9.28 11.59 11 11.14V16H13V11.14C14.72 11.59 16 13.14 16 15C16 17.21 14.21 19 12 19Z" /></svg>
